X:1
T:The Harbourview
L:1/8
M:6/8
I:linebreak $
K:D
V:1 treble 
V:1
|: g | fed e2 E | FED E2 F | BAB dcd | AFD D2 g | fed e2 E | FED E2 F | BAB dAF |$ BGE E2 :: f | %10
 gfe efe | bge egb | afd dBA |1 Bdd d2 f | gfe efe | bge egb |$ afb afd | e3 e2 :|2 Bdd def | %19
 g2 e f2 d | efe dBA | B2 G AFD | E3 E2 |] %23
